assets/icons/icon-discord.svg

<svg fill="none" height="48" viewBox="0 0 48 48" width="48" xmlns="http://www.w3.org/2000/svg"><path clip-rule="evenodd" d="m32.5362 16.9724c.1179.0776.2114.1868.27.3152.5175 1.1174 3.0375 6.9224 2.76 11.7524 0 0-1.5 2.9024-6 3.1424-.011.0009-.0221.0009-.033 0-.0187-.0015-.037-.0064-.0542-.0137-.0162-.0068-.0311-.0161-.0445-.0273-.0094-.0079-.0181-.0166-.0258-.0264l-.9975-1.2825c-.0163-.0198-.028-.0429-.0343-.0679-.0063-.0249-.0069-.0507-.0019-.0759.0051-.0251.0156-.0488.031-.0693.0153-.0205.0351-.0374.0578-.0493l.021-.0118c.6652-.3676 2.9054-1.6062 3.729-2.8083-2.5299 1.5938-5.4225 2.52-8.4076 2.6924-2.9812-.1687-5.871-1.0899-8.3999-2.6775.8025 1.2151 3.0824 2.4675 3.75 2.8201.0123.0066.0238.0146.0341.0239.0087.0076.0166.0161.0236.0254.0153.0205.0259.0444.0309.0693.0051.0252.0044.0513-.0018.0762-.0063.0246-.0181.0478-.0343.0676l-.9975 1.2825c-.0187.0234-.0428.042-.0703.0537-.0275.012-.0575.0166-.0873.0139-4.4699-.24-6.0375-3.1426-6.0375-3.1426-.2399-4.8449 2.25-10.6499 2.7601-11.7673.0586-.1284.1521-.2376.2699-.3152 1.6617-1.0972 3.5905-1.7222 5.58-1.8074l.045.1724c-3.1875.8325-4.4325 1.905-4.8299 2.3325-.0238.0474-.0145.065.007.0713.0124.0037.0289.0037.0454.0037 3.2551-1.7698 7.9125-1.6724 7.9125-1.6724s4.635-.0974 7.875 1.6724c.01.008.0227.0117.0354.0102.0126-.0012.0242-.0078.0321-.0176.008-.01.0117-.0227.0103-.0354-.0007-.0061-.0025-.0117-.0052-.0168-.0031-.0059-.0073-.0112-.0126-.0154-.3974-.4275-1.6425-1.4699-4.83-2.3325l.045-.1724c1.9896.0852 3.9183.7102 5.58 1.8074zm-12.525 5.7676c-.4287 0-.8477.1272-1.2042.3652-.3564.2383-.6342.5767-.7983.9729-.164.396-.2069.8318-.1233 1.2522s.29.8067.5932 1.1099c.3031.303.6893.5095 1.1098.593.4204.0837.8563.0408 1.2523-.1233.3961-.1641.7346-.4419.9727-.7983.2382-.3565.3653-.7754.3653-1.2041 0-.575-.2283-1.1263-.6348-1.5327-.4065-.4065-.9578-.6348-1.5327-.6348zm9.2422 3.3716c-.2381.3564-.5766.6342-.9727.7983-.396.1641-.8319.207-1.2523.1233-.4205-.0835-.8067-.29-1.1098-.593-.3032-.3032-.5096-.6895-.5932-1.1099s-.0407-.8562.1233-1.2522c.1641-.3962.4419-.7346.7983-.9729.3565-.238.7755-.3652 1.2042-.3652.5749 0 1.1262.2283 1.5327.6348.4065.4064.6348.9577.6348 1.5327 0 .4287-.1271.8476-.3653 1.2041z" fill="#fff" fill-rule="evenodd"/></svg>

<svg width="48" height="48" viewBox="0 0 48 48" fill="none" xmlns="http://www.w3.org/2000/svg">
<path d="M29.2534 26.1116C29.0153 26.468 28.6768 26.7458 28.2807 26.9099C27.8847 27.074 27.4488 27.1169 27.0284 27.0332C26.6079 26.9497 26.2217 26.7432 25.9186 26.4402C25.6154 26.137 25.409 25.7507 25.3254 25.3303C25.2418 24.9099 25.2847 24.4741 25.4487 24.0781C25.6128 23.6819 25.8906 23.3435 26.247 23.1052C26.6035 22.8672 27.0225 22.74 27.4512 22.74C28.0261 22.74 28.5774 22.9683 28.9839 23.3748C29.3904 23.7812 29.6187 24.3325 29.6187 24.9075C29.6187 25.3362 29.4916 25.7551 29.2534 26.1116Z" fill="#181818"/>
<path d="M20.0112 22.74C19.5825 22.74 19.1635 22.8672 18.807 23.1052C18.4506 23.3435 18.1728 23.6819 18.0087 24.0781C17.8447 24.4741 17.8018 24.9099 17.8854 25.3303C17.969 25.7507 18.1754 26.137 18.4786 26.4402C18.7817 26.7432 19.1679 26.9497 19.5884 27.0332C20.0088 27.1169 20.4447 27.074 20.8407 26.9099C21.2368 26.7458 21.5753 26.468 21.8134 26.1116C22.0516 25.7551 22.1787 25.3362 22.1787 24.9075C22.1787 24.3325 21.9504 23.7812 21.5439 23.3748C21.1374 22.9683 20.5861 22.74 20.0112 22.74Z" fill="#181818"/>
<path fill-rule="evenodd" clip-rule="evenodd" d="M24 48C37.2548 48 48 37.2548 48 24C48 10.7452 37.2548 0 24 0C10.7452 0 0 10.7452 0 24C0 37.2548 10.7452 48 24 48ZM32.8062 17.2876C32.7476 17.1592 32.6541 17.05 32.5362 16.9724C30.8745 15.8752 28.9458 15.2502 26.9562 15.165L26.9112 15.3374C30.0987 16.2 31.3438 17.2424 31.7412 17.6699C31.7465 17.6741 31.7507 17.6794 31.7538 17.6853C31.7565 17.6904 31.7583 17.696 31.759 17.7021C31.7604 17.7148 31.7567 17.7275 31.7487 17.7375C31.7408 17.7473 31.7292 17.7539 31.7166 17.7551C31.7039 17.7566 31.6912 17.7529 31.6812 17.7449C28.4412 15.9751 23.8062 16.0725 23.8062 16.0725C23.8062 16.0725 19.1488 15.9751 15.8938 17.7449C15.8772 17.7449 15.8607 17.7449 15.8483 17.7412C15.8268 17.7349 15.8175 17.7173 15.8413 17.6699C16.2387 17.2424 17.4837 16.1699 20.6712 15.3374L20.6262 15.165C18.6367 15.2502 16.7079 15.8752 15.0462 16.9724C14.9284 17.05 14.8349 17.1592 14.7763 17.2876C14.2662 18.405 11.7763 24.21 12.0162 29.0549C12.0162 29.0549 13.5838 31.9575 18.0537 32.1975C18.0835 32.2002 18.1135 32.1956 18.141 32.1836C18.1685 32.1719 18.1926 32.1533 18.2113 32.1299L19.2088 30.8474C19.225 30.8276 19.2368 30.8044 19.2431 30.7798C19.2493 30.7549 19.25 30.7288 19.2449 30.7036C19.2399 30.6787 19.2293 30.6548 19.214 30.6343C19.207 30.625 19.1991 30.6165 19.1904 30.6089C19.1801 30.5996 19.1686 30.5916 19.1563 30.585C18.4887 30.2324 16.2088 28.98 15.4063 27.7649C17.9352 29.3525 20.825 30.2737 23.8062 30.4424C26.7913 30.27 29.6839 29.3438 32.2138 27.75C31.3902 28.9521 29.15 30.1907 28.4848 30.5583L28.4638 30.5701C28.4411 30.582 28.4213 30.5989 28.406 30.6194C28.3906 30.6399 28.3801 30.6636 28.375 30.6887C28.37 30.7139 28.3706 30.7397 28.3769 30.7646C28.3832 30.7896 28.3949 30.8127 28.4112 30.8325L29.4087 32.115C29.4164 32.1248 29.4251 32.1335 29.4345 32.1414C29.4479 32.1526 29.4628 32.1619 29.479 32.1687C29.4962 32.176 29.5145 32.1809 29.5332 32.1824C29.5441 32.1833 29.5552 32.1833 29.5662 32.1824C34.0662 31.9424 35.5662 29.04 35.5662 29.04C35.8437 24.21 33.3237 18.405 32.8062 17.2876Z" fill="#181818"/>
</svg>
